resources/svg/search-property.svg

<svg xmlns="http://www.w3.org/2000/svg" viewBox="0 0 15 15" fill="currentColor"><path d="M5 8V6.20711L6.5 4.70711L8 6.20711V8H5Z" fill="black"/><path fill-rule="evenodd" clip-rule="evenodd" d="M0 6.5C0 2.91015 2.91015 0 6.5 0C10.0899 0 13 2.91015 13 6.5C13 8.11493 12.4111 9.59231 11.4362 10.7291L14.8536 14.1464L14.1465 14.8535L10.7291 11.4362C9.59237 12.411 8.11496 13 6.5 13C2.91015 13 0 10.0899 0 6.5ZM8.85355 5.64645L6.85355 3.64645C6.65829 3.45118 6.34171 3.45118 6.14645 3.64645L4.14645 5.64645C4.05268 5.74021 4 5.86739 4 6V8.5C4 8.77614 4.22386 9 4.5 9H8.5C8.77614 9 9 8.77614 9 8.5V6C9 5.86739 8.94732 5.74021 8.85355 5.64645Z" fill="black"/></svg>

<svg xmlns="http://www.w3.org/2000/svg" viewBox="0 0 15 15" fill="currentColor"><path d="M5 8V6.207l1.5-1.5 1.5 1.5V8H5z" fill="currentColor"/><path fill-rule="evenodd" clip-rule="evenodd" d="M0 6.5a6.5 6.5 0 1111.436 4.23l3.418 3.416-.707.707-3.418-3.417A6.5 6.5 0 010 6.5zm8.854-.854l-2-2a.5.5 0 00-.708 0l-2 2A.5.5 0 004 6v2.5a.5.5 0 00.5.5h4a.5.5 0 00.5-.5V6a.5.5 0 00-.146-.354z" fill="currentColor"/></svg>
